assets/vectors/9.svg

<?xml version="1.0" encoding="UTF-8" standalone="no"?>
<!DOCTYPE svg PUBLIC "-//W3C//DTD SVG 1.1//EN" "http://www.w3.org/Graphics/SVG/1.1/DTD/svg11.dtd">
<svg width="250px" height="250px" version="1.1" xmlns="http://www.w3.org/2000/svg" xmlns:xlink="http://www.w3.org/1999/xlink" xml:space="preserve" xmlns:serif="http://www.serif.com/" style="fill-rule:evenodd;clip-rule:evenodd;stroke-linejoin:round;stroke-miterlimit:1.5;">
    <rect id="Artboard" x="0" y="-500" width="999.991" height="1000" style="fill:none;"/>
    <g id="background">
    </g>
    <path id="OSTROV" d="M153.69,107.991C125.315,54.043 -2.239,10.97 5.323,-231.538C10.278,-390.443 111.31,-461.829 186.957,-460.805C232.625,-460.186 288.838,-453.187 429.96,-393.467C529.062,-351.53 575.23,-340.82 603.907,-351.679C674.243,-378.314 682.87,-389.33 721.578,-409.138C757.384,-427.461 794.527,-456.154 821.957,-467.137C904.286,-500.1 1046.28,-464.656 960,-307.045C938.336,-267.473 957.089,-187.326 933.144,-18.643C906.159,171.461 854.682,116.792 845,161.357C838.009,193.537 900.472,305.911 860,381.357C807.077,480.013 663.418,445.756 616.957,442.863C547.037,438.51 436.097,524.886 336.957,492.863C123.707,423.984 216.359,227.142 153.69,107.991Z" style="fill:#e2e1bf;"/>
    <path id="OSTROV1" serif:id="OSTROV" d="M178.951,66.685C130.927,40.278 51.194,11.876 20,-131.929C-10.788,-273.863 53.54,-418.925 178.951,-454.153C220.341,-465.779 306.339,-446.664 439.358,-392.034C532.769,-353.671 576.287,-343.874 603.317,-353.808C669.613,-378.173 792.79,-451.346 860.084,-457.008C910.37,-461.238 987.811,-436.69 955.084,-338.398C951.933,-328.933 940.446,-296.796 940.084,-281.712C938.105,-199.155 924.692,-32.19 912.587,32.477C890.392,151.057 795.013,102.078 822.916,181.357C845.701,246.096 877.605,340.415 825,391.357C741.849,471.881 643.03,412.249 617.784,410.724C551.879,406.742 423.281,489.181 329.747,460.149C236.213,431.117 219.722,283.003 222.352,233.926C224.983,184.849 217.667,87.973 178.951,66.685Z" style="fill:#589765;"/>
    <path d="M253.905,-253.472C223.925,-295.422 261.804,-452.947 137.092,-387.839C59.159,-347.152 7.877,-212.199 31.832,-130.766C100.777,103.603 229.442,5.153 232.635,111.528C238.015,290.746 234.657,412.637 352.635,441.087C402.996,453.231 494.242,442.058 530.608,377.748C549.945,343.552 628.434,271.669 702.635,349.46C725.115,373.028 761.478,382.035 787.055,360C815.287,335.677 809.653,295.206 794.345,275C771.902,245.375 748.234,210.258 757.635,166.659C778.818,68.426 837.367,104.15 858.066,58.83C902.476,-38.403 697.953,-76.2 627.635,-15.341C535.801,64.139 339.049,-134.331 253.905,-253.472Z" style="fill:#8dcf86;"/>
    <g id="pole">
        <path d="M152.292,-1.166L160,5L163.414,7.181C170.182,7.06 176.906,7.485 182.95,8.126L186.088,0C176.348,-1.468 164.086,-2.488 152.292,-1.166ZM135.337,-14.731C150.949,-19.13 166.147,-18.625 178.362,-16.638L180,-15L182.915,-9.587L183.77,-7.003C172.812,-8.806 158.603,-9.904 144.39,-7.488L135.337,-14.731ZM122.088,-27.912L129.087,-20.913C143.807,-25.108 159.268,-24.815 171.752,-23.248L165,-30L162.652,-33.198C150.667,-34.151 136.823,-33.289 122.912,-28.219C122.692,-28.139 122.373,-28.019 122.088,-27.912ZM158.099,-39.399C145.639,-40.308 129.52,-38.495 116.096,-33.654C115.73,-33.521 115,-33.248 115,-33.248L109.802,-40.522C109.802,-40.522 110.266,-40.725 110.498,-40.824C124.247,-46.721 139.819,-49.382 152.063,-48.881C152.672,-47.526 153.575,-45.841 155,-43.62L158.099,-39.399ZM150,-54.942L150,-54.942L149.008,-64.121C134.711,-65.15 115.217,-62.497 98.792,-54.29C98.408,-54.098 97.64,-53.703 97.64,-53.703L103.628,-47.063C103.628,-47.063 104.798,-47.584 105.387,-47.832C119.146,-53.611 136.879,-55.731 150,-54.942ZM148.373,-70L148.373,-70L148.999,-78.907C131.959,-81.114 110.067,-80.083 89.418,-67.697C88.791,-67.322 87.553,-66.548 87.553,-66.548L93.167,-60.029C93.167,-60.029 94.766,-60.97 95.575,-61.412C112.483,-70.633 132.353,-71.532 148.373,-70ZM78.994,-80.574L83.32,-73.248C84.458,-74.022 85.607,-74.76 86.764,-75.459C108.421,-88.54 128.416,-87.72 149.383,-84.359L150,-93.137C132.23,-96.596 106.797,-97.392 83.015,-83.128C81.652,-82.31 80.311,-81.457 78.994,-80.574ZM70.457,-94.533L75,-87.337L75,-87.337C76.764,-88.607 78.552,-89.796 80.362,-90.889C105.593,-106.13 138.415,-101.512 154.933,-97.691L157.435,-100L141.965,-108.873C124.291,-112.061 99.676,-112.391 76.613,-98.558C74.507,-97.294 72.454,-95.948 70.457,-94.533ZM64.238,-110.093L63.849,-105L66.326,-101.077C68.821,-102.993 71.368,-104.754 73.959,-106.319C93.79,-118.298 118.312,-118.009 135.917,-115.481L130,-123.423L126.238,-125.601L125.669,-125.656C109.302,-127.171 89.228,-125.395 70.21,-113.988C68.169,-112.763 66.178,-111.461 64.238,-110.093ZM106.412,-135L113.274,-132.29C113.274,-132.29 112.693,-131.97 111.619,-132.168C101.092,-134.111 79.851,-129.176 67.556,-121.749C66.793,-121.289 65.924,-120.712 65,-120.065L65,-120.066L75,-130L90,-135L106.412,-135Z" style="fill:#f7db6b;"/>
        <path d="M230.77,256.47C234.934,256.869 243.082,257.549 253.128,257.876C253.847,257.899 264.263,258.066 265,258.086C269.833,258.214 248.122,261.357 248.122,261.357C248.122,261.357 234.387,265.568 231.815,265.367L230.77,256.47ZM286.365,244.064L279.958,249.823C276.197,250.552 272.982,251.05 270.448,251.193C253.924,252.127 238.754,251.246 231.788,250.705L238.491,239.908C246.476,240.475 258.01,241.031 270.448,240.773C275.185,240.675 282.153,239.334 290.558,237.524L286.365,244.064ZM303.453,217.413L296.001,229.035C284.949,231.537 275.831,233.647 270.146,233.968C259.384,234.576 249.196,234.414 241.474,234.078L246.205,223.165C253.128,223.508 261.414,223.728 270.146,223.548C277.187,223.402 289.157,220.51 303.453,217.413ZM338.622,197.735L321.863,206.341C299.463,210.375 279.598,216.192 269.844,216.743C262.351,217.166 255.135,217.216 248.837,217.094L253.543,206.24C258.615,206.387 264.134,206.441 269.844,206.322C284.83,206.012 322.142,193.262 356.698,192.568L338.622,197.735ZM260.951,189.154C263.741,189.173 266.616,189.158 269.542,189.097C285.916,188.758 328.946,173.567 365.907,175.479C375.272,175.964 384.419,178.514 392.083,181.437L391.291,182.68L376.324,186.958C372.833,186.14 369.212,185.574 365.547,185.395C328.594,183.594 285.514,198.615 269.542,199.517C264.971,199.775 260.504,199.895 256.283,199.921L260.951,189.154ZM267.147,171.907C267.841,171.898 268.539,171.886 269.239,171.872C285.614,171.533 328.644,156.342 365.604,158.254C378.946,158.944 391.845,163.825 400.641,168.006L395.054,176.774C387.19,172.856 376.415,168.714 365.245,168.17C328.292,166.369 285.212,181.389 269.239,182.292C267.413,182.395 265.603,182.476 263.82,182.537L267.147,171.907ZM272.632,154.381C291.127,152.323 330.851,139.246 365.302,141.028C384.078,142 401.977,151.272 408.796,155.208L403.082,164.175C396.081,159.857 380.916,151.723 364.943,150.945C328.263,149.157 285.547,163.943 269.295,165.044L272.632,154.381ZM290.739,133.74C311.261,129.27 339.567,122.487 365,123.803C388.91,125.04 411.397,139.737 411.397,139.737L406.83,149.613C406.83,149.613 386.491,134.784 364.641,133.719C333.7,132.211 298.464,142.496 278.441,146.412L290.739,133.74Z" style="fill:#589765;"/>
    </g>
    <g id="kere">
        <g id="ker">
        </g>
        <g id="ker1" serif:id="ker">
        </g>
        <g id="ker2" serif:id="ker">
        </g>
        <g id="ker3" serif:id="ker">
        </g>
        <g id="ker4" serif:id="ker">
        </g>
        <g id="ker5" serif:id="ker">
        </g>
        <g id="ker6" serif:id="ker">
        </g>
        <g id="ker7" serif:id="ker">
        </g>
        <g id="ker8" serif:id="ker">
        </g>
        <g id="ker9" serif:id="ker">
        </g>
        <g id="ker10" serif:id="ker">
        </g>
        <g id="ker11" serif:id="ker">
        </g>
        <g id="ker12" serif:id="ker">
            <path d="M245.822,261.633C245.557,260.209 245.473,258.447 245.473,256.884C245.473,248.256 249.502,241.198 254.846,241.113C256.548,241.086 257.948,240.968 259.18,241.772C262.82,244.148 264.84,250.438 264.84,256.884C264.84,258.37 264.768,259.565 264.533,261.051C264.533,261.051 256.119,261.773 253.227,261.787C250.775,261.799 245.822,261.633 245.822,261.633Z" style="fill:#3b7847;"/>
            <path d="M264.598,260.617C264.929,258.956 264.84,258.407 264.84,256.884C264.84,248.876 261.887,242.2 258.105,241.292C257.812,241.221 257.527,241.251 257.225,241.251C253.022,241.251 249.61,248.256 249.61,256.884C249.61,258.407 249.825,260.29 250.039,261.749C250.039,261.749 254.148,260.597 257.639,260.524C259.928,260.477 264.598,260.617 264.598,260.617Z" style="fill:#4db343;"/>
        </g>
        <g id="ker13" serif:id="ker">
        </g>
        <g id="ker14" serif:id="ker">
        </g>
        <g id="ker15" serif:id="ker">
        </g>
        <g id="ker16" serif:id="ker">
            <path d="M231.675,123.863C231.48,122.822 231.419,121.532 231.419,120.39C231.419,114.08 234.385,108.918 238.318,108.856C239.571,108.836 240.602,108.75 241.509,109.338C244.189,111.075 245.676,115.676 245.676,120.39C245.676,121.476 245.623,122.35 245.45,123.437C245.45,123.437 239.256,123.965 237.127,123.975C235.321,123.984 231.675,123.863 231.675,123.863Z" style="fill:#3b7847;"/>
            <path d="M245.345,124.628C245.588,123.414 245.676,121.503 245.676,120.39C245.676,114.533 243.502,109.651 240.717,108.987C240.502,108.935 240.292,108.957 240.07,108.957C236.976,108.957 234.464,114.08 234.464,120.39C234.464,121.503 234.622,122.881 234.779,123.947C234.779,123.947 237.864,124.025 240.434,123.972C242.12,123.937 245.345,124.628 245.345,124.628Z" style="fill:#4db343;"/>
        </g>
        <g id="ker17" serif:id="ker">
            <path d="M251.193,124.661C250.956,123.388 250.881,121.811 250.881,120.414C250.881,112.698 254.484,106.386 259.262,106.311C260.784,106.286 262.037,106.181 263.139,106.9C266.393,109.025 268.2,114.65 268.2,120.414C268.2,121.743 268.136,122.812 267.925,124.141C267.925,124.141 260.401,124.786 257.815,124.799C255.622,124.81 251.193,124.661 251.193,124.661Z" style="fill:#3b7847;"/>
        </g>
        <g id="ker18" serif:id="ker">
        </g>
    </g>
    <g id="male-cesty" serif:id="male cesty">
        <path d="M212.949,125C217.914,123.689 275.901,130.48 314.158,120.578C424.27,92.078 477.612,194.734 505,216.033" style="fill:none;stroke:#2d5836;stroke-width:4px;"/>
        <g id="les">
        </g>
        <path d="M250,-15C175.415,16.515 126.464,-60.907 154.728,-100" style="fill:none;stroke:#2d5836;stroke-width:4px;stroke-linecap:round;"/>
        <path d="M168.371,-26.059C196.259,-6.538 186.099,19.483 167.653,15.74" style="fill:none;stroke:#2d5836;stroke-width:4px;stroke-linecap:round;"/>
    </g>
    <g id="hory">
    </g>
    <g id="ker19" serif:id="ker">
    </g>
    <g id="ker20" serif:id="ker">
    </g>
    <g id="ker21" serif:id="ker">
    </g>
    <g id="strom">
        <path d="M161.4,-10.445L161.4,10" style="fill:none;stroke:#4c4c4c;stroke-width:4px;stroke-linecap:round;"/>
    </g>
    <g id="strom1" serif:id="strom">
        <g>
            <path d="M208.008,-20.983C210.37,-21.021 212.314,-21.185 214.024,-20.068C219.076,-16.771 221.88,-8.04 221.88,0.907C221.88,10.398 218.308,20.994 212.199,22.529C210.246,23.019 209.979,22.605 208.44,22.605C201.022,22.605 195,12.882 195,0.907C195,-11.069 200.592,-20.866 208.008,-20.983Z" style="fill:#3b7847;"/>
            <ellipse cx="211.311" cy="0.907" rx="10.569" ry="21.698" style="fill:#4db343;"/>
        </g>
        <path d="M208.44,11.283L208.44,38.173" style="fill:none;stroke:#4c4c4c;stroke-width:4px;stroke-linecap:round;"/>
    </g>
    <path d="M671.694,-178.643C635.296,-125.864 623.8,-155.525 566.051,-170.833C524.391,-181.877 476.63,-158.794 456.212,-124.718C436.529,-91.87 417.148,-56.563 397.147,-20.958C381.672,6.59 374.225,39.132 354.662,60.897C342.837,74.054 321.775,88.992 308.032,96.637C291.874,105.626 285.91,129.32 275.91,140.446C271.865,144.947 263.897,147.416 261.403,151.975C256.363,161.188 258.293,176.187 254.149,185.409C247.086,201.125 237.194,230.004 222.026,238.442C216.41,241.566 209.891,240.005 204.411,243.053C200.461,245.251 179.275,257.594 175.395,257.594" style="fill:none;stroke:#065e7b;stroke-width:27.47px;stroke-linecap:round;"/>
    <ellipse cx="174.891" cy="257.314" rx="13.736" ry="13.96" style="fill:#065e7b;"/>
    <path d="M659.98,-166.376C656.283,-156.851 645.302,-148.064 632.258,-146.767C610.518,-144.604 563.303,-182.081 521.65,-171.879C491.638,-164.528 470.123,-143.609 455.841,-120.936C435.467,-88.591 418.759,-53.265 398.773,-17.614C383.308,9.971 372.381,43.251 352.868,65.044C341.073,78.218 317.855,93.552 304.168,101.207C288.074,110.208 286.362,131.395 276.387,142.536C272.352,147.042 265.017,148.303 262.524,152.869C257.488,162.093 257.658,179.841 253.512,189.076C246.445,204.812 235.889,232.244 220.783,240.693C215.189,243.821 207.781,242.806 202.323,245.859C198.389,248.059 178.104,258.768 170,261.357" style="fill:none;stroke:#73b3ce;stroke-width:9.33px;stroke-linecap:round;"/>
    <g id="ker22" serif:id="ker">
    </g>
    <g id="cesty-velke" serif:id="cesty velke">
        <path d="M403.011,-287.381C397.011,-278.382 381.789,-251.514 275.406,-262.447C201.73,-270.019 170.918,-308.783 113.773,-294.807C39.107,-276.547 11.779,-153.437 95,-43.643C125.287,-3.685 233.312,69.995 290,72.305" style="fill:none;stroke:#2d5836;stroke-width:18.67px;stroke-linecap:round;"/>
    </g>
    <g id="strom2" serif:id="strom">
    </g>
    <g id="strom3" serif:id="strom">
    </g>
    <g id="strom4" serif:id="strom">
    </g>
    <g id="strom5" serif:id="strom">
    </g>
    <g id="stromy">
    </g>
    <g id="namesti">
    </g>
    <g id="smrky">
    </g>
    <g id="listnace">
    </g>
    <g id="lanoka">
    </g>
    <g id="strom6" serif:id="strom">
    </g>
    <g id="satelit">
    </g>
    <g id="domky">
        <g id="D1">
        </g>
        <g id="D7">
        </g>
        <g id="D71" serif:id="D7">
        </g>
        <g id="D72" serif:id="D7">
        </g>
        <g id="D73" serif:id="D7">
        </g>
        <g id="D74" serif:id="D7">
        </g>
        <g id="D75" serif:id="D7">
        </g>
        <g id="D76" serif:id="D7">
        </g>
        <g id="D77" serif:id="D7">
        </g>
        <g id="D78" serif:id="D7">
        </g>
        <g id="D79" serif:id="D7">
        </g>
        <g id="D710" serif:id="D7">
        </g>
        <g id="D711" serif:id="D7">
        </g>
        <g id="D712" serif:id="D7">
        </g>
        <g id="D713" serif:id="D7">
        </g>
        <g id="D714" serif:id="D7">
        </g>
        <g id="D715" serif:id="D7">
        </g>
        <g id="D716" serif:id="D7">
        </g>
        <g id="D2">
        </g>
        <g id="D21" serif:id="D2">
        </g>
        <g id="D10">
        </g>
        <g id="D101" serif:id="D10">
        </g>
        <g id="D102" serif:id="D10">
        </g>
        <g id="D01">
        </g>
    </g>
    <g id="strom7" serif:id="strom">
    </g>
    <g id="strom8" serif:id="strom">
    </g>
    <g id="staba">
    </g>
    <g id="chladici-vez" serif:id="chladici vez">
    </g>
    <g id="D22" serif:id="D2">
    </g>
    <g id="D5">
    </g>
    <g id="TOVANA">
        <g>
            <path d="M264.191,-48.457L244.874,-48.457L236.259,2.854L264.191,2.854L264.191,-48.457Z" style="fill:#8c8c8c;"/>
            <path d="M262.903,-48.457L251.642,-48.457L245.797,2.854L263.184,2.832L262.903,-48.457Z" style="fill:#b3b3b3;"/>
            <rect x="248.864" y="-9.117" width="87.786" height="31.922" style="fill:#d9d9d9;"/>
            <rect x="232.903" y="-9.117" width="15.961" height="31.922" style="fill:#8c8c8c;"/>
        </g>
    </g>
    <g id="strom9" serif:id="strom">
    </g>
    <g id="strom10" serif:id="strom">
        <g>
            <path d="M253.171,15.023C254.92,14.995 256.359,14.873 257.626,15.7C261.367,18.142 263.443,24.608 263.443,31.233C263.443,38.261 260.798,46.108 256.274,47.245C254.828,47.608 254.63,47.301 253.49,47.301C247.997,47.301 243.538,40.101 243.538,31.233C243.538,22.364 247.679,15.11 253.171,15.023Z" style="fill:#3b7847;"/>
            <ellipse cx="255.616" cy="31.233" rx="7.827" ry="16.068" style="fill:#4db343;"/>
        </g>
    </g>
    <path d="M259.768,58.182L249.372,53.973L246.917,61.181L257.545,65L259.768,58.182Z" style="fill:#2d5836;"/>
    <g id="panelaky">
        <g id="D6">
        </g>
        <g id="D3">
        </g>
        <g id="D9">
        </g>
        <g id="D91" serif:id="D9">
        </g>
        <g id="D92" serif:id="D9">
        </g>
        <g id="D93" serif:id="D9">
        </g>
        <g id="D717" serif:id="D7">
        </g>
    </g>
    <g id="strom11" serif:id="strom">
    </g>
    <g id="strom12" serif:id="strom">
    </g>
    <g id="letiste">
    </g>
    <g id="strom13" serif:id="strom">
    </g>
    <g id="strom14" serif:id="strom">
    </g>
    <g id="tunel-s-vlakem" serif:id="tunel s vlakem">
    </g>
    <g id="strom15" serif:id="strom">
    </g>
    <g id="hrad">
    </g>
    <g id="auta">
        <path d="M188.57,29.1C194.323,32.298 198.948,34.973 196.563,39.264C193.829,44.181 189.464,41.038 183.711,37.84C177.959,34.642 173.124,32.553 175.719,27.676C178.373,22.48 182.818,25.902 188.57,29.1Z" style="fill:#589765;"/>
    </g>
    <g id="majak">
    </g>
    <g id="vetrna-elektr" serif:id="vetrna elektr">
        <path d="M103.313,60.788L72.346,60.788L80.088,-137.162L95.572,-137.162L103.313,60.788Z" style="fill:#d9d9d9;"/>
        <path d="M83.1,60.678L72.346,60.788L80.088,-137.162L86.102,-137.162L83.1,60.678Z" style="fill:#8c8c8c;"/>
    </g>
    <g id="osrov-pokladu" serif:id="osrov pokladu">
    </g>
</svg>

<svg xmlns="http://www.w3.org/2000/svg" xml:space="preserve" fill-rule="evenodd" stroke-linejoin="round" stroke-miterlimit="1.5" clip-rule="evenodd" viewBox="0 0 250 250"><path fill="none" d="M0-500h1000V500H0z"/><path fill="#e2e1bf" d="M153.7 108C125.3 54-2.3 11 5.3-231.5c5-159 106-230.3 181.7-229.3 45.6.6 101.8 7.6 243 67.3 99 42 145.2 52.7 174 41.8 70.2-26.6 78.9-37.6 117.6-57.4 35.8-18.4 73-47 100.4-58 82.3-33 224.3 2.4 138 160-21.7 39.6-3 119.8-26.9 288.5-27 190-78.4 135.4-88.1 180-7 32.1 55.5 144.5 15 220-53 98.6-196.6 64.4-243 61.5-70-4.4-180.9 82-280 50-213.3-69-120.6-265.8-183.3-385Z"/><path fill="#589765" d="M179 66.7C131 40.3 51.2 11.9 20-132c-30.8-142 33.5-287 159-322.3 41.3-11.6 127.3 7.5 260.4 62.2 93.4 38.3 136.9 48.1 164 38.2C669.5-378.2 792.7-451.3 860-457c50.3-4.2 127.7 20.3 95 118.6-3.2 9.5-14.7 41.6-15 56.7-2 82.5-15.4 249.5-27.5 314.2C890.4 151 795 102 822.9 181.4c22.8 64.7 54.7 159 2.1 210-83.2 80.5-182 20.8-207.2 19.3-66-4-194.5 78.5-288 49.4-93.6-29-110-177.1-107.4-226.2 2.6-49-4.7-146-43.4-167.2Z"/><path fill="#8dcf86" d="M254-253.5c-30-42 7.8-199.4-117-134.3-77.7 40.6-129 175.6-105.1 257 69 234.4 197.6 136 200.8 242.3 5.4 179.2 2 301.1 120 329.6 50.4 12.1 141.6 1 178-63.4 19.3-34.1 97.8-106 172-28.2 22.5 23.5 58.9 32.5 84.5 10.5 28.2-24.3 22.6-64.8 7.2-85-22.4-29.6-46-64.7-36.7-108.3 21.2-98.3 79.8-62.5 100.5-107.9 44.4-97.2-160.1-135-230.5-74.1C535.8 64 339-134.3 254-253.5Z"/><path fill="#f7db6b" d="M152.3-1.2 160 5l3.4 2.2c6.8-.1 13.5.3 19.5 1l3.2-8.2c-9.8-1.5-22-2.5-33.8-1.2Zm-17-13.5a100 100 0 0 1 43-2L180-15l3 5.4.8 2.6c-11-1.8-25.2-2.9-39.4-.5l-9-7.2ZM122.1-28l7 7a109 109 0 0 1 42.7-2.3L165-30l-2.3-3.2a94 94 0 0 0-39.8 5l-.8.3Zm36-11.5c-12.5-1-28.6 1-42 5.7l-1.1.5-5.2-7.3.7-.3c13.7-6 29.3-8.6 41.6-8 .6 1.3 1.5 3 2.9 5.2l3.1 4.2ZM150-54.9l-1-9.2c-14.3-1-33.8 1.6-50.2 9.8l-1.2.6 6 6.6 1.8-.7c13.7-5.8 31.5-8 44.6-7.1ZM148.4-70l.6-9a93 93 0 0 0-59.6 11.3l-1.8 1.2 5.6 6.5 2.4-1.4a93 93 0 0 1 52.8-8.6ZM79-80.6l4.3 7.4 3.5-2.3c21.6-13 41.6-12.2 62.6-8.9l.6-8.7a94.2 94.2 0 0 0-71 12.5Zm-8.5-14 4.5 7.3 5.4-3.6c25.2-15.2 58-10.6 74.5-6.8l2.5-2.3-15.4-8.9a93.6 93.6 0 0 0-71.5 14.4ZM64.2-110l-.4 5.1 2.5 4c2.5-2 5-3.8 7.7-5.3 19.8-12 44.3-11.7 62-9.2l-6-8-3.8-2.1h-.5A90.3 90.3 0 0 0 64.2-110Zm42.2-24.9 6.9 2.7s-.6.3-1.7.1c-10.5-2-31.7 3-44 10.5L65-120l10-9.9 15-5h16.4Z"/><path fill="#589765" d="M230.8 256.5c4.1.4 12.3 1 22.3 1.4l11.9.2c4.8.1-16.9 3.3-16.9 3.3s-13.7 4.2-16.3 4l-1-9Zm55.6-12.4-6.4 5.7c-3.8.8-7 1.3-9.6 1.4a302 302 0 0 1-38.6-.5l6.7-10.8c8 .6 19.5 1.1 32 .9 4.7-.1 11.7-1.5 20-3.3l-4.1 6.6Zm17-26.7L296 229c-11 2.5-20.2 4.6-25.9 5-10.7.6-20.9.4-28.6 0l4.7-10.8c7 .3 15.2.5 24 .3 7-.1 19-3 33.3-6Zm35.2-19.7-16.7 8.6c-22.4 4-42.3 9.9-52 10.4-7.5.5-14.8.5-21 .4l4.6-10.9c5.1.2 10.6.2 16.3.1 15-.3 52.3-13 86.9-13.7l-18 5.1Zm-77.6-8.5 8.5-.1c16.4-.3 59.4-15.5 96.4-13.6a86 86 0 0 1 26.2 6l-.8 1.2-15 4.3a54 54 0 0 0-10.8-1.6c-37-1.8-80 13.2-96 14.1-4.5.3-9 .4-13.2.4l4.7-10.7Zm6.1-17.3h2.1c16.4-.4 59.4-15.6 96.4-13.6 13.3.6 26.2 5.5 35 9.7l-5.5 8.8c-8-4-18.7-8-29.9-8.6-37-1.8-80 13.2-96 14l-5.4.3 3.3-10.6Zm5.5-17.5c18.5-2 58.3-15.2 92.7-13.4a105 105 0 0 1 43.5 14.2l-5.7 9a86 86 0 0 0-38.2-13.3c-36.6-1.7-79.4 13-95.6 14.1l3.3-10.6Zm18.1-20.7c20.6-4.4 48.9-11.2 74.3-9.9 24 1.2 46.4 16 46.4 16l-4.6 9.8s-20.3-14.8-42.2-15.9c-30.9-1.5-66.1 8.8-86.2 12.7l12.3-12.7Z"/><path fill="#3b7847" d="M245.8 261.6a36 36 0 0 1-.3-4.7c0-8.6 4-15.7 9.3-15.8 1.7 0 3.1-.1 4.4.7 3.6 2.3 5.6 8.6 5.6 15 0 1.6 0 2.8-.3 4.3 0 0-8.4.7-11.3.7l-7.4-.2Z"/><path fill="#4db343" d="M264.6 260.6c.3-1.6.2-2.2.2-3.7 0-8-3-14.7-6.7-15.6h-.9c-4.2 0-7.6 7-7.6 15.6 0 1.5.2 3.4.4 4.8 0 0 4.1-1.1 7.6-1.2l7 .1Z"/><path fill="#3b7847" d="M231.7 123.9a20 20 0 0 1-.3-3.5c0-6.3 3-11.5 7-11.5 1.2 0 2.2-.2 3.1.4 2.7 1.8 4.2 6.4 4.2 11 0 1.2 0 2-.3 3.1 0 0-6.1.6-8.3.6l-5.4-.1Z"/><path fill="#4db343" d="M245.3 124.6c.3-1.2.4-3.1.4-4.2 0-5.9-2.2-10.7-5-11.4h-.6c-3.1 0-5.6 5-5.6 11.4 0 1.1.1 2.5.3 3.5h5.6c1.7 0 5 .7 5 .7Z"/><path fill="#3b7847" d="M251.2 124.7a30 30 0 0 1-.3-4.3c0-7.7 3.6-14 8.4-14 1.5-.1 2.7-.2 3.8.5 3.3 2.1 5.1 7.8 5.1 13.5 0 1.3 0 2.4-.3 3.7 0 0-7.5.7-10 .7l-6.7-.1Z"/><path fill="none" stroke="#2d5836" stroke-width="4" d="M213 125c5-1.3 62.9 5.5 101.2-4.4C424.2 92 477.6 194.7 505 216"/><path fill="none" stroke="#2d5836" stroke-linecap="round" stroke-width="4" d="M250-15c-74.6 31.5-123.5-46-95.3-85"/><path fill="none" stroke="#2d5836" stroke-linecap="round" stroke-width="4" d="M168.4-26c27.9 19.5 17.7 45.5-.7 41.7"/><path fill="none" stroke="#4c4c4c" stroke-linecap="round" stroke-width="4" d="M161.4-10.4V10"/><path fill="#3b7847" d="M208-21c2.4 0 4.3-.2 6 1 5 3.2 7.9 12 7.9 21 0 9.4-3.6 20-9.7 21.5-2 .5-2.2.1-3.8.1C201 22.6 195 13 195 1s5.6-21.8 13-21.9Z"/><ellipse cx="211.3" cy=".9" fill="#4db343" rx="10.6" ry="21.7"/><path fill="none" stroke="#4c4c4c" stroke-linecap="round" stroke-width="4" d="M208.4 11.3v26.9"/><path fill="#065e7b" d="M211.3 255 200 230l-18.7 10 2 28.5 28-13.5Z"/><path fill="none" stroke="#065e7b" stroke-linecap="round" stroke-width="27.5" d="M671.7-178.6c-36.4 52.7-47.9 23-105.6 7.8-41.7-11-89.5 12-109.9 46-19.7 33-39 68.2-59 103.8-15.5 27.6-23 60.1-42.5 81.9A208.6 208.6 0 0 1 308 96.6c-16.1 9-22 32.7-32 43.8-4.1 4.5-12.1 7-14.6 11.6-5 9.2-3.1 24.2-7.3 33.4-7 15.7-17 44.6-32 53-5.7 3.2-12.2 1.6-17.7 4.7"/><path fill="none" stroke="#73b3ce" stroke-linecap="round" stroke-width="9.3" d="M660-166.4a33.9 33.9 0 0 1-27.7 19.6c-21.8 2.2-69-35.3-110.6-25-30 7.3-51.6 28.2-65.9 50.9-20.3 32.3-37 67.6-57 103.3-15.5 27.6-26.4 60.9-46 82.6-11.7 13.2-35 28.6-48.6 36.2-16.1 9-17.8 30.2-27.8 41.3-4 4.5-11.4 5.8-13.9 10.4-5 9.2-4.8 27-9 36.2-7 15.7-17.6 43.1-32.7 51.6-5.6 3.1-13 2.1-18.5 5.2l-14.4 7.5"/><path fill="none" stroke="#2d5836" stroke-linecap="round" stroke-width="18.7" d="M403-287.4c-6 9-21.2 35.9-127.6 25-73.7-7.6-104.5-46.4-161.6-32.4C39-276.5 11.8-153.4 95-43.6c30.3 40 138.3 113.6 195 116"/><path fill="#8c8c8c" d="M264.2-48.5h-19.3L236.3 3h27.9v-51.4Z"/><path fill="#b3b3b3" d="M262.9-48.5h-11.3L245.8 3h17.4l-.3-51.4Z"/><path fill="#d9d9d9" d="M248.9-9.1h87.8v31.9h-87.8z"/><path fill="#8c8c8c" d="M232.9-9.1h16v31.9h-16z"/><path fill="#3b7847" d="M253.2 15c1.7 0 3.2-.1 4.4.7 3.8 2.4 5.8 9 5.8 15.5 0 7-2.6 15-7.1 16-1.5.4-1.7.1-2.8.1-5.5 0-10-7.2-10-16 0-9 4.2-16.2 9.7-16.3Z"/><ellipse cx="255.6" cy="31.2" fill="#4db343" rx="7.8" ry="16.1"/><path fill="#2d5836" d="M259.8 58.2 249.4 54l-2.5 7.2 10.6 3.8 2.3-6.8Z"/><path fill="#73b3ce" d="m195 255-4.3-8.2-8.6 4.2.7 10.2L195 255Z"/><path fill="#589765" d="M188.6 29.1c5.7 3.2 10.3 5.9 8 10.2-2.8 4.9-7.1 1.7-12.9-1.5-5.7-3.2-10.6-5.2-8-10.1 2.7-5.2 7.1-1.8 12.9 1.4Z"/><path fill="#d9d9d9" d="M103.3 60.8h-31l7.8-198h15.5l7.7 198Z"/><path fill="#8c8c8c" d="M83.1 60.7H72.3l7.8-197.9h6l-3 197.9Z"/></svg>
